X:1
T:The Irish Washerwoman
M:6/8
L:1/8
Q:1/4=120
K:G
|:D|DGGBAB|dBGBAB|DGGBAB|dBAAGF|DGGBAB|dBGBAB|defgdB|AGFG2:||:d|defgdB|defgdB|defgdB|dBAAGF|DGGBAB|dBGBAB|defgdB|AGFG2:|
